icons/note-24.svg

<svg xmlns="http://www.w3.org/2000/svg" width="24" height="24" viewBox="0 0 24 24">
  <defs/>
  <path d="M0,4.75 C0,3.784 0.784,3 1.75,3 L22.25,3 C23.216,3 24,3.784 24,4.75 L24,19.25 C24,20.216 23.216,21 22.25,21 L1.75,21 C0.784,21 0,20.216 0,19.25 Z M1.75,4.5 C1.612,4.5 1.5,4.612 1.5,4.75 L1.5,19.25 C1.5,19.388 1.612,19.5 1.75,19.5 L22.25,19.5 C22.388,19.5 22.5,19.388 22.5,19.25 L22.5,4.75 C22.5,4.612 22.388,4.5 22.25,4.5 Z"/>
  <path d="M5,8.75 C5,8.336 5.336,8 5.75,8 L17.25,8 C17.664,8 18,8.336 18,8.75 C18,9.164 17.664,9.5 17.25,9.5 L5.75,9.5 C5.336,9.5 5,9.164 5,8.75 Z M5,12.75 C5,12.336 5.336,12 5.75,12 L11.25,12 C11.664,12 12,12.336 12,12.75 C12,13.164 11.664,13.5 11.25,13.5 L5.75,13.5 C5.336,13.5 5,13.164 5,12.75 Z"/>
</svg>

<svg xmlns="http://www.w3.org/2000/svg" width="24" height="24" viewBox="0 0 24 24"><path fill-rule="evenodd" d="M0 4.75C0 3.784.784 3 1.75 3h20.5c.966 0 1.75.784 1.75 1.75v14.5A1.75 1.75 0 0122.25 21H1.75A1.75 1.75 0 010 19.25V4.75zm1.75-.25a.25.25 0 00-.25.25v14.5c0 .138.112.25.25.25h20.5a.25.25 0 00.25-.25V4.75a.25.25 0 00-.25-.25H1.75z"/><path fill-rule="evenodd" d="M5 8.75A.75.75 0 015.75 8h11.5a.75.75 0 010 1.5H5.75A.75.75 0 015 8.75zm0 4a.75.75 0 01.75-.75h5.5a.75.75 0 010 1.5h-5.5a.75.75 0 01-.75-.75z"/></svg>
